X:040 
T:Cronin's Favorite
F:file ID: cre.5/040cron_f
B:CRE5.043 (Rogha UÃÂÃÂÃÂÃÂ­ ChrÃÂÃÂÃÂÃÂ³inÃÂÃÂÃÂÃÂ­n)
S:Paddy O'Brien (Offaly)
M:6/8
Q:160
R:jig
K:Am
G|EAA ABd|ege dBA|GE^F GAB|dBA GED|
EAA ABd|ege de^f|g2d ege|dBG A2:|
g|eag egd|eaa bag|e^fg d2g|e^fg ged|
eag egd|eaa bag|e^fg edB|BAG A2:|

%%%

